!!!!SEGMENT: pl-kk--kk-i-389--001-003_kottritsch-franciszek--missa-no-1-gloria.krn
!!!cenid: 17xx:2454
!!!COM: Kottritsch, Franciszek
!!!COM-rismID: pe30040598
!!!CDT: ~1727-1787
!!!CNT:
!!!OPR: [Missa] No. 1.
!!!OTL: Gloria
!!!OMV: 003
!!!PDT:
!!!AGN: Sacred; Mass
!!!YEC: Copyright 2022 Narodowy Instytut Fryderyka Chopina (https://polishscores.org)
!!!YEM: License CC-BY-4.0 (https://creativecommons.org/licenses/by/4.0)
!!!SMS-siglum: PL-Kk
!!!SMS-shelfmark: Kk.I.389
!!!SMS-variant:
!!!SMS-altvar:
!!!SMS-shelfwork: 001-003 M
!!!NIFC-rismSourceID: 1001146182
!!!NIFC-rismChildID: 1001146200
!!!NIFC-islandoraID: pl-kk:6976
!!!URL-pdf-islandora: https://repozytorium.nifc.pl/islandora/object/pl-kk%3A6976/datastream/PDF/view
!!!URL-scan: https://polish.musicsources.pl/pl/lokalizacje/galeria/rekopisy/5999/1 @EN{Scan on Polish Music Sources Website} @PL{Skany w portalu Dziedzictwo Muzyki Polskiej w otwartym dostępie}
!!!IIIF:
!!!ONB-nifc: UWAGA: S – skan 1-3, A – 20-22, T – 39-41 , B – 58-60. Części Mszy: Rorate, Kyrie, Gloria, Graduale, Sanctus, Benedictus, Agnus, Dona.
!!!OMD:
!!!AIN: 1 alto 1 bass 1 soprn 1 tenor
!!!key: C
**kern	**text	**kern	**text	**kern	**text	**kern	**text
*part4	*part4	*part3	*part3	*part2	*part2	*part1	*part1
*staff4	*staff4	*staff3	*staff3	*staff2	*staff2	*staff1	*staff1
*ICvox	*	*ICvox	*	*ICvox	*	*ICvox	*
*Ibass	*	*Itenor	*	*Ialto	*	*Isoprn	*
*I"Basso.	*	*I"Tenore.	*	*I"Alto.	*	*I"Soprano.	*
*clefF4	*	*clefC4	*	*clefC3	*	*clefC1	*
*k[]	*	*k[]	*	*k[]	*	*k[]	*
*C:	*	*C:	*	*C:	*	*C:	*
*M2/2	*	*M2/2	*	*M2/2	*	*M2/2	*
*met(C|)	*	*met(C|)	*	*met(C|)	*	*met(C|)	*
=1	=1	=1	=1	=1	=1	=1	=1
*	*	*	*	*2\right	*	*2\right	*
2.C/	Et	2.G/	Et	2.e\	Et	2.cc\	Et
*	*	*	*	*4\right	*	*4\right	*
4C/	in	4G/	in	4e\	in	4cc\	in
=2	=2	=2	=2	=2	=2	=2	=2
*2\right	*	*	*	*	*	*	*
2E\	ter-	2G/	ter-	2g\	ter-	2cc\	ter-
*	*	*2\right	*	*	*	*	*
2F\	-ra	2c\	-ra	2a\	-ra	2cc\	-ra
=3	=3	=3	=3	=3	=3	=3	=3
2G\	pax	2d\	pax	2g\	pax	2b\	pax
2G\	ho-	2d\	ho-	2g\	ho-	2b\	ho-
=4	=4	=4	=4	=4	=4	=4	=4
2A\	-mi-	2c\	-mi-	2f\	-mi-	2cc\	-mi-
2B\	-ni-	2G/	-ni-	2d\	-ni-	2dd\	-ni-
=5	=5	=5	=5	=5	=5	=5	=5
2c\	-bus	2G/	-bus	2e\	-bus	2cc\	-bus,
*4\right	*	*	*	*	*	*	*
4c\	bo-	4G/	bo-	4g\	bo-	4ee\	bo-
4c\	-ne	4G/	-ne	4e\	-ne	4cc\	-ne
=6	=6	=6	=6	=6	=6	=6	=6
2B\	vo-	2G/	vo-	2f\	vo-	2dd\	vo-
2c\	-lun-	2G/	-lun-	2e\	-lun-	2cc\	-lun-
!	!	!	!	!	!	!LO:LB:g=original	!
=7	=7	=7	=7	=7	=7	=7	=7
2G\	-ta-	2G/	-ta-	2e\	-ta-	2cc\	-ta-
2G\	-tis,	2G/	-tis,	2d\	-tis,	2b\	-tis,
!LO:LB:g=original	!	!LO:LB:g=original	!	!LO:LB:g=original	!	!	!
=8	=8	=8	=8	=8	=8	=8	=8
!LO:TX:a:t=2.	!	!	!	!	!	!	!
0r	.	2r	.	2r	.	2r	.
.	.	2G/	Lau-	4d\	Lau-	4b\	Lau-
.	.	.	.	4e\	.	4cc\	.
=9	=9	=9	=9	=9	=9	=9	=9
.	.	2.G/	-da-	2.f\	-da-	2.dd\	-da-
.	.	4G/	-mus	4f\	-mus	4dd\	-mus
=10	=10	=10	=10	=10	=10	=10	=10
2r	.	2G/	te,	2e\	te,	2cc\	te,
4G\	be-	2r	.	4d\	be-	4b\	be-
4G\	-ne-	.	.	4e\	-ne-	4cc\	-ne-
=11	=11	=11	=11	=11	=11	=11	=11
!	!	!LO:TX:a:t=1.	!	!	!	!	!
2G\	-di-	1r	.	2f\	-di-	2dd\	-di-
4G\	-ci-	.	.	4f\	-ci-	4dd\	-ci-
4G\	-mus	.	.	4f\	-mus	4dd\	-mus
=12	=12	=12	=12	=12	=12	=12	=12
2C/	te,	2r	.	2e\	te,	2cc\	te,
4C/	a-	4G/	a-	4e\	a-	4cc\	a-
4BB/	-do-	4G/	-do-	4f\	-do-	4dd\	-do-
=13	=13	=13	=13	=13	=13	=13	=13
2C/	-ra-	2c\	-ra-	2g\	-ra-	2ee\	-ra-
4BB/	.	2G/	-mus	4f\	.	4dd\	.
4C/	-mus	.	.	4e\	-mus	4cc\	-mus
!	!	!	!	!	!	!LO:LB:g=original	!
=14	=14	=14	=14	=14	=14	=14	=14
2G\	te,	2G/	te,	2d\	te,	2b\	te,
2G\	glo-	2G/	glo-	2d\	glo-	2b\	glo-
=15	=15	=15	=15	=15	=15	=15	=15
2C/	-ri-	2G/	-ri-	2e\	-ri-	2cc\	-ri-
2F\	-fi-	2A\	-fi-	2f\	-fi-	2dd\	-fi-
!	!	!	!	!LO:LB:g=original	!	!	!
=16	=16	=16	=16	=16	=16	=16	=16
2G\	-ca-	2G/	-ca-	2e\	-ca-	2cc\	-ca-
2GG/	-mus	2G/	-mus	2d\	-mus	2b\	-mus
=17	=17	=17	=17	=17	=17	=17	=17
2C/	te,	2G/	te,	2e\	te,	2cc\	te,
2r	.	2r	.	2r	.	2r	.
!LO:LB:g=original	!	!LO:LB:g=original	!	!	!	!	!
=18	=18	=18	=18	=18	=18	=18	=18
4AA/	Gra-	2A\	Gra-	2e\	Gra-	2cc\	Gra-
4C/	.	.	.	.	.	.	.
*	*	*4\right	*	*	*	*	*
!LO:N:xstem	!	!	!	!	!	!	!
4E\	-ti-	4A\	-ti-	4e\	-ti-	4cc\	-ti-
4A\	-as	4A\	-as	4e\	-as	4cc\	-as
=19	=19	=19	=19	=19	=19	=19	=19
4G#X\	a-	4B\	a-	2e\	a-	2dd\	a-
4A\	.	4c\	.	.	.	.	.
4B\	-gi-	4d\	-gi-	4e\	-gi-	4dd\	-gi-
4G#\	-mus	4B\	-mus	4e\	-mus	4dd\	-mus
=20	=20	=20	=20	=20	=20	=20	=20
4A\	ti-	1A	ti-	2.e\	ti-	1cc	ti-
4F\	.	.	.	.	.	.	.
4E\	.	.	.	.	.	.	.
4D#X\	.	.	.	4f#X\	.	.	.
=21	=21	=21	=21	=21	=21	=21	=21
2E\	-bi,	2G#X/	-bi	2e\	-bi	2b\	-bi,
4G#X\	pro-	4B\	pro-	4e\	pro-	4dd\	pro-
4E\	-pter	4G#/	pter	4e\	-pter	4b\	-pter
!	!	!	!	!	!	!LO:LB:g=original	!
=22	=22	=22	=22	=22	=22	=22	=22
4A\	ma-	2A\	mag-	2e\	mag-	2cc\	mag-
4E\	.	.	.	.	.	.	.
4C/	.	2A\	-nam	2e\	-nam	2cc\	-nam
4AA/	-gnam	.	.	.	.	.	.
=23	=23	=23	=23	=23	=23	=23	=23
2D\	glo-	2G#X/	glo-	2fn\	glo-	2b\	glo-
!	!	!	!	!LO:LB:g=original	!	!	!
=-	=-	=-	=-	=-	=-	=-	=-
4C\	-ri-	4A/	-ri-	4e\	-ri-	4cc\	-ri-
4D\	-am	4A/	-am	4f\	-am	4b\	-am
!LO:LB:g=original	!	!	!	!	!	!	!
=24	=24	=24	=24	=24	=24	=24	=24
1E	tu-	2A/	tu-	1e	tu-	2cc\	tu-
.	.	2G#X/	.	.	.	2b\	.
=25	=25	=25	=25	=25	=25	=25	=25
2AA/	-am,	2A\	-am,	2e\	-am,	2cc\	-am,
!	!	!LO:LB:g=original	!	!	!	!	!
=-	=-	=-	=-	=-	=-	=-	=-
4Gn\	Do-	4A\	Do-	4e\	Do-	4cc#X\	Do-
*8\right	*	*8\right	*	*8\right	*	*8\right	*
8G\	-mi-	8A\	-mi-	8e\	-mi-	8cc#\	-mi-
8G\	-ne	8A\	-ne	8e\	-nus	8cc#\	-ne
=26	=26	=26	=26	=26	=26	=26	=26
4F\	De-	4A\	De-	4f\	De-	4dd\	De-
4E\	-us	4A\	-us	4g\	-us	4cc#X\	-us
8D\L	Rex	4A\	Rex	4f\	Rex	4dd\	Rex
8E\J	.	.	.	.	.	.	.
8F\L	ce-	4A\	ce-	4f\	ce-	4dd\	ce-
8G\J	.	.	.	.	.	.	.
=27	=27	=27	=27	=27	=27	=27	=27
4A\	-les-	4A\	-les-	4e\	-les-	4cc#X\	-les-
4A\	-tis	4A\	-tis	4e\	-tis	4cc#\	-tis
4c#X\	De-	4A\	De-	4g\	De-	4ee\	De-
4A\	-u[s]	4A\	-us	4e\	-us	4cc#\	-us
!	!	!	!	!	!	!LO:LB:g=original	!
=28	=28	=28	=28	=28	=28	=28	=28
8d\L	Pa-	4A\	Pa-	4f\	Pa-	4dd\	Pa-
8A\J	.	.	.	.	.	.	.
8F\	-ter	8A\	-ter	8f\	-ter	8dd\	-ter
8G\	om-	8B-X\	om-	8g\	om-	8ee\	om-
4A\	-ni-	4A\	-ni-	4f\	-ni-	4dd\	-ni-
4AA/	-po-	4A\	-po-	4e\	-po-	4cc#X\	-po-
!LO:LB:g=original	!	!	!	!LO:LB:g=original	!	!	!
=29	=29	=29	=29	=29	=29	=29	=29
2D\	-tens,	2A\	-tens,	2f\	-tens	2dd\	-tens,
4d\	Do-	4A\	Do-	4f#X\	Do-	4ccn\	Do-
8d\	-mi-	8A\	-mi-	8f#\	-mi-	8cc\	-mi-
8d\	-ne	8A\	-ne	8f#\	-ne	8cc\	-ne
=30	=30	=30	=30	=30	=30	=30	=30
4B-X\	fi-	4G\	fi-	4g\	Fi-	4dd\	Fi-
4G\	-li	4B-X\	-li	4g\	-li	4dd\	-li
!	!	!LO:LB:g=original	!	!	!	!	!
=-	=-	=-	=-	=-	=-	=-	=-
4c\	u-	4G/	u-	4e\	u-	4b-X\	u-
4B-\	-ni-	4G/	-ni-	4e\	-ni-	4cc\	-ni-
=31	=31	=31	=31	=31	=31	=31	=31
8A\	-ge-	8A\	-ge-	8fn\	-ge-	8cc\	-ge-
8G\	-ni-	8B-X\	-ni-	8g\	-ni-	8cc\	-ni-
4F\	-te	4c\	-te	4a\	-te	4cc\	-te
4E\	Je-	4B-\	Je-	4g\	Je-	4cc\	Je-
4F\	-su	4A\	-su	4f\	-su	4cc\	-su
=32	=32	=32	=32	=32	=32	=32	=32
1C	Chri-	2A\	Chri-	2f\	Chri-	1cc	Chri-
.	.	2G\	[[ste]]	2e\	.	.	.
!	!	!	!	!	!	!LO:LB:g=original	!
=33	=33	=33	=33	=33	=33	=33	=33
2F\	-ste,	2A\	-ste,	2f\	-ste	2cc\	-ste
4F\	Do-	4Bn\	Do-	4f\	Do-	4dd\	Do-
8F\	-mi-	8B\	-mi-	8f\	-mi-	8dd\	-mi-
8F\	-ne	8B\	-ne	8f\	-ne	8dd\	-ne
=34	=34	=34	=34	=34	=34	=34	=34
8E\L	De-	4G/	De-	8e\L	De-	8cc\L	De-
8D\J	.	.	.	8f\J	.	8dd\J	.
4C/	-us	4G/	-us	4g\	-us	4ee\	-us
!LO:LB:g=original	!	!	!	!LO:LB:g=original	!	!	!
=-	=-	=-	=-	=-	=-	=-	=-
4BBn/	ag-	4G/	ag-	4f\	ag-	4dd\	ag-
4C/	-nus	4G/	-nus	4e\	-nus	4cc\	-nus
=35	=35	=35	=35	=35	=35	=35	=35
4G\	De-	4G/	De-	4e\	De-	4cc\	De-
4GG/	-i	4G/	-i	4d\	-i	4b\	-i
4G\	Fi-	4G/	fi-	4d\	Fi-	4b\	fi-
8G\	-li-	8G/	-li-	8e\	-li-	8cc\	-li-
8G\	-us	8B/	-us	8f\	-us	8dd\	-us
!	!	!LO:LB:g=original	!	!	!	!	!
=36	=36	=36	=36	=36	=36	=36	=36
4C/	Pa-	1G	Pa-	2e\	Pa-	2cc\	Pa-
4E\	.	.	.	.	.	.	.
4G\	.	.	.	2d\	.	2b\	.
4GG/	.	.	.	.	.	.	.
=37	=37	=37	=37	=37	=37	=37	=37
2C/	-tris,	2G/	-tris	2e\	-tris	2cc\	-tris,
2C/	Qui	2c\	Qui	2g\	qui	2ee\	Qui
!	!	!	!	!	!	!LO:LB:g=original	!
=38||	=38||	=38||	=38||	=38||	=38||	=38||	=38||
*M3/2	*	*M3/2	*	*M3/2	*	*M3/2	*
2C/	tol-	2c\	tol-	2g\	tol-	2ee\	tol-
2E\	-lis	2c\	-lis	2g\	-lis	2ee\	-lis
2G\	pec-	2B\	pe-	2f\	pec-	2dd\	pec-
=39	=39	=39	=39	=39	=39	=39	=39
2E\	-ca-	1G	-ca-	2g\	-ca-	1cc	-ca-
2C/	.	.	.	2e\	.	.	.
2G\	-ta	2G/	-ta	2d\	-ta	2b\	-ta
!LO:LB:g=original	!	!	!	!	!	!	!
=40	=40	=40	=40	=40	=40	=40	=40
2c\	mun-	1.A	mun-	1e	mun-	1.cc	mun-
2A\	.	.	.	.	.	.	.
2F#X\	.	.	.	2f#X\	.	.	.
!	!	!	!	!LO:LB:g=original	!	!	!
=41	=41	=41	=41	=41	=41	=41	=41
2G\	-di	2d\	-di	2g\	-di	2b\	-di,
2G\	mi-	2B\	mi-	2fn\	mi-	2dd\	mi-
2G\	-se-	2B\	-se-	2f\	-se-	2dd\	-se-
=42	=42	=42	=42	=42	=42	=42	=42
2G\	-re-	2B\	-re-	1f	-re-	1dd	-re-
2B\	.	2G/	.	.	.	.	.
2c\	-re	2G/	-re	2e\	-re	2cc\	-re
=43	=43	=43	=43	=43	=43	=43	=43
2F\	no-	2A/	no-	2d\	no-	2a\	no-
2G\	.	1G	.	2e\	.	2cc\	.
2GG/	.	.	.	2d\	.	2b\	.
!	!	!LO:LB:g=original	!	!	!	!	!
=44	=44	=44	=44	=44	=44	=44	=44
1C	-bis,	1G	-bis,	1e	-bis,	1cc	-bis,
(4C\	qui	2c\	qui	4g\	qui	(4ee\	qui
4E\)	.	.	.	4e\	.	4cc\)	.
!	!	!	!	!	!	!LO:LB:g=original	!
=45	=45	=45	=45	=45	=45	=45	=45
2G\	tol-	2B\	tol-	2d\	tol-	2b\	tol-
2G\	-lis	2G/	-lis	2d\	-lis	2b\	-lis
2c\	pec-	2G/	pec-	2e\	pec-	2cc\	pec-
=46	=46	=46	=46	=46	=46	=46	=46
2B\	-ca-	1B	-ca-	1f	-ca-	1dd	-ca-
!LO:LB:g=original	!	!	!	!	!	!	!
=-	=-	=-	=-	=-	=-	=-	=-
2G\	.	.	.	.	.	.	.
2c\	-ta	2G/	-ta	2e\	-ta	2cc\	-ta
=47	=47	=47	=47	=47	=47	=47	=47
2G\	mun-	2G/	mun-	2e\	mun-	2cc\	mun-
2G\	-di	2G/	-di	2d\	-di,	2b\	-di,
2r	.	2r	.	2r	.	2r	.
!	!	!	!	!LO:LB:g=original	!	!	!
=48	=48	=48	=48	=48	=48	=48	=48
2.G#X\	sus-	2.B\	sus-	2.fn\	Sus-	2.dd\	sus-
4G#\	-ci-	4B\	-ci-	4f\	-ci-	4dd\	-ci-
2G#\	-pe	2B\	-pe	2f\	-pe	2dd\	-pe
=49	=49	=49	=49	=49	=49	=49	=49
2.A\	sus-	2.A/	sus-	2.e\	sus-	2.cc\	sus-
4E\	-ci-	4G#X/	-ci-	4e\	-ci-	4b\	-ci-
2AA/	-pe	2A/	-pe	2e\	-pe	2cc\	-pe
=50	=50	=50	=50	=50	=50	=50	=50
2AA/	de-	2c\	de-	2e\	de-	2cc\	de-
2BB/	.	2d\	.	2d\	.	2b\	.
2C/	-pre-	2e\	-pre-	2c\	-pre-	2a\	-pre-
!	!	!LO:LB:g=original	!	!	!	!LO:LB:g=original	!
=51	=51	=51	=51	=51	=51	=51	=51
2D\	-ca-	2f\	-ca-	2B/	-ca-	2g#X\	-ca-
2C/	.	2e\	.	2c/	.	2a\	.
2BB/	-ti-	2d\	-ti-	2d/	-ti-	2b\	-ti-
=52	=52	=52	=52	=52	=52	=52	=52
2AA/	-o-	2c\	-o-	2e\	-o-	2cc\	-o-
!LO:LB:g=original	!	!	!	!	!	!	!
=-	=-	=-	=-	=-	=-	=-	=-
2BB/	.	2d\	.	2d\	.	2b\	.
2C/	-nem	2e\	-nem	2c\	-nem	2a\	-nem
=53	=53	=53	=53	=53	=53	=53	=53
2D\	no-	2d\	no-	2f\	no-	2a\	no-
1E	.	1B	.	1e	.	1g#X	.
=54	=54	=54	=54	=54	=54	=54	=54
2AA/	-stram,	2c\	-stram	2e\	-stram	2a\	-stram,
!	!	!	!	!LO:LB:g=original	!	!	!
=-	=-	=-	=-	=-	=-	=-	=-
2r	.	2r	.	2r	.	2r	.
2GG/	qui	2G/	qui	2d\	qui	2b\	qui
=55	=55	=55	=55	=55	=55	=55	=55
2C/	se-	2c\	se-	2g\	se-	2ee\	se-
2E\	-des	2c\	-des	2g\	-des	2ee\	-des
2G\	ad	2B\	ad	2f\	ad	2dd\	ad
=56	=56	=56	=56	=56	=56	=56	=56
2.E\	dex-	2.G/	dex-	2.e\	dex-	2.cc\	dex-
4D\	-te-	4G/	-te-	4f\	-ter-	4dd\	-ter-
2C/	-ram	2G/	-ram	2g\	-ram	2ee\	-ram
!	!	!	!	!	!	!LO:LB:g=original	!
=57	=57	=57	=57	=57	=57	=57	=57
2C/	ad	2G/	ad	2g\	ad	2ee\	ad
2BB/	dex-	2G/	de-	2f\	dex-	2dd\	dex-
!	!	!LO:LB:g=original	!	!	!	!	!
=-	=-	=-	=-	=-	=-	=-	=-
4C\	-te-	4G/	-xte-	4e\	-ter-	4cc\	-ter-
4E\	-ram	4G/	-ram	4e\	-ram	4cc\	-ram
=58	=58	=58	=58	=58	=58	=58	=58
2G\	Pa-	2G/	Pat-	2e\	pat-	2cc\	Pat-
2GG/	-tris,	2G/	-ris,	2d\	-ris	2b\	-ris,
2r	.	2r	.	2r	.	2r	.
!LO:LB:g=original	!	!	!	!	!	!	!
=59	=59	=59	=59	=59	=59	=59	=59
2G\	mi-	2B\	mi-	2g\	mi-	1dd	mi-
2A\	.	2c\	.	2f#X\	.	.	.
2B\	-se-	2d\	-se-	2fn\	-se-	2g\	-se-
!	!	!	!	!LO:LB:g=original	!	!	!
=60	=60	=60	=60	=60	=60	=60	=60
2c\	-re-	2e\	-re-	2e\	-re-	1g	-re-
2B\	.	2d\	.	2f\	.	.	.
2c\	-re	2c\	-re	2e\	-re	2g\	-re
=61	=61	=61	=61	=61	=61	=61	=61
2F\	no-	2A/	no-	2f\	no-	2dd\	no-
2G\	.	1G	.	2e\	.	2cc\	.
2GG/	.	.	.	2d\	.	2b\	.
=62	=62	=62	=62	=62	=62	=62	=62
1.C	-bis,	1.G	-bis,	1.e	-bis,	1.cc	-bis,
!	!	!	!	!	!	!LO:PB:g=original	!
=63||	=63||	=63||	=63||	=63||	=63||	=63||	=63||
*M2/2	*	*M2/2	*	*M2/2	*	*M2/2	*
*met(C|)	*	*met(C|)	*	*met(C|)	*	*met(C|)	*
4C/	Quo-	4.c\	Quo-	4.g\	Quo-	4.ee\	Quo-
4G\	-ni-	.	.	.	.	.	.
.	.	8B\	-ni-	8f\	-ni-	8dd\	-ni-
4c\	-am	4G\	-am	4e\	-am	4cc\	-am
4G\	tu	4B\	tu	4f\	tu	4dd\	tu
!	!	!LO:LB:g=original	!	!	!	!	!
=64	=64	=64	=64	=64	=64	=64	=64
4c\	so-	4.c\	so-	4.g\	so-	4.ee\	so-
4G\	.	.	.	.	.	.	.
.	.	8B\	.	8f\	.	8dd\	.
4C/	-lus	4G/	-lus	4e\	-lus,	4cc\	-lus,
4C/	tu	4G/	tu	8e\L	tu	8cc\L	tu
.	.	.	.	8f\J	.	8dd\J	.
!LO:PB:g=original	!	!	!	!LO:PB:g=original	!	!	!
=65	=65	=65	=65	=65	=65	=65	=65
2C/	so-	2c\	so-	4g\	so-	4ee\	so-
.	.	.	.	8a\L	-lus	8ff\L	.
.	.	.	.	8g\J	.	8ee\J	.
4G\	.	4B\	.	4f\	so-	4dd\	.
4c\	-lus	4c\	-lus	4e\	-lus	4cc\	-lus
=66	=66	=66	=66	=66	=66	=66	=66
4G\	san-	4G/	san-	4e\	San-	4cc\	San-
4G\	-ctus,	4G/	-ctus,	4d\	-ctus	4b\	-ctus
4r	.	4r	.	4r	.	4r	.
4G\	tu	4G/	tu	8d\L	tu	8b\L	tu
.	.	.	.	8e\J	.	8cc\J	.
=67	=67	=67	=67	=67	=67	=67	=67
2G\	so-	2B\	so-	2f\	so-	2dd\	so-
2G\	-lus	2G/	-lus	4e\	.	4cc\	.
.	.	.	.	4d\	-lus	4b\	-lus
!	!	!	!	!	!	!LO:LB:g=original	!
=68	=68	=68	=68	=68	=68	=68	=68
4c\	Do-	4G/	Do-	4.e\	Do-	4.cc\	Do-
4G\	-mi-	4B\	-mi-	.	.	.	.
.	.	.	.	8f\	-mi-	8dd\	-mi-
4C/	-nus	4c\	-nus	4g\	-nus,	4ee\	-nus
4C/	tu	4c\	tu	4g\	tu	4ee\	tu
=69	=69	=69	=69	=69	=69	=69	=69
4C/	so-	4c\	so-	8g\L	so-	8ee\L	so-
.	.	.	.	8e\J	.	8cc\J	.
8BB/	-lus	8d\	-lus	8a\	-lus	8ff\	-lus
8C/	al-	8c\	al-	8g\	al-	8ee\	al-
!	!	!	!	!LO:LB:g=original	!	!	!
=-	=-	=-	=-	=-	=-	=-	=-
4F\	-tis-	4A\	-tis-	8g\L	-tis-	8ee\L	-tis-
.	.	.	.	8f\J	.	8dd\J	.
4F#X\	-si-	4A\	-si-	8f\L	-si-	8dd\L	-si-
.	.	.	.	8e\J	.	8cc\J	.
!	!	!LO:PB:g=original	!	!	!	!	!
=70	=70	=70	=70	=70	=70	=70	=70
2G\	-mus,	2G/	-mus,	2d\	-mus,	2b\	-mus,
2r	.	2r	.	2r	.	2r	.
=71	=71	=71	=71	=71	=71	=71	=71
4G\	Je-	1B	Je-	1f	Je-	1dd	Je-
4d\	.	.	.	.	.	.	.
4B\	.	.	.	.	.	.	.
4G\	-su	.	.	.	.	.	.
!LO:LB:g=original	!	!	!	!	!	!	!
=72	=72	=72	=72	=72	=72	=72	=72
4c\	Je-	1G	-su	1e	-su	1cc	-su
4G\	.	.	.	.	.	.	.
4E\	.	.	.	.	.	.	.
4C\	-su	.	.	.	.	.	.
=73	=73	=73	=73	=73	=73	=73	=73
4F\	Je-	2A\	Chri-	2f\	Chri-	2dd\	Chri-
4D\	-su	.	.	.	.	.	.
4G\	Chri-	2B\	.	2d\	.	2b\	.
4GG/	.	.	.	.	.	.	.
=74	=74	=74	=74	=74	=74	=74	=74
2C/	-ste	2G/	-ste,	2e\	-ste,	2cc\	-ste,
2G\	cum	2G/	cum	2d\	cum	2b\	cum
!	!	!	!	!	!	!LO:LB:g=original	!
=75	=75	=75	=75	=75	=75	=75	=75
4C/	san-	2G/	san-	4e\	san-	4cc\	san-
4D/	.	.	.	4f\	.	4b\	.
4E\	.	4c\	.	2g\	-cto,	4cc\	-cto
4F\	-cto	4B\	-cto	.	.	4dd\	.
=76	=76	=76	=76	=76	=76	=76	=76
4G\	Spi-	4B\	Spi-	4g\	Spi-	4b\	Spi-
4A\	-ri-	4A\	-ri-	4g\	-ri-	4cc\	-ri-
!	!	!	!	!LO:LB:g=original	!	!	!
=-	=-	=-	=-	=-	=-	=-	=-
4B\	-tu	4G\	-tu	4g\	-tu	4dd\	-tu
4G\	in	4B\	in	4f\	in	4b\	in
=77	=77	=77	=77	=77	=77	=77	=77
4c\	Glo-	4G/	glo-	4e\	glo-	4cc\	glo-
8G\	-ri-	8G/	-ri-	8e\	-ri-	8cc\	-ri-
8G\	-a	8G/	-a	8e\	-a	8cc\	-a
8F\L	De-	4G/	De-	4d\	De-	4b\	De-
8E\J	.	.	.	.	.	.	.
8D\L	-i	4G/	-i	4e\	-i	4cc\	-i
8C\J	.	.	.	.	.	.	.
!LO:LB:g=original	!	!LO:LB:g=original	!	!	!	!	!
=78	=78	=78	=78	=78	=78	=78	=78
4G\	Pa-	4G/	Pa-	4d\	Pa-	4b\	Pa-
4GG/	-tris,	4G/	-tris	4d\	-tris	4b\	-tris
2r	.	2r	.	2r	.	2r	.
=79	=79	=79	=79	=79	=79	=79	=79
4d\	a-	1B	a-	1f	a-	1dd	a-
4c\	.	.	.	.	.	.	.
4B\	.	.	.	.	.	.	.
4G\	-men	.	.	.	.	.	.
=80	=80	=80	=80	=80	=80	=80	=80
4c\	a-	1G	-men	1e	-men	1cc	-men
4G\	.	.	.	.	.	.	.
4E\	.	.	.	.	.	.	.
4C/	-men	.	.	.	.	.	.
=81	=81	=81	=81	=81	=81	=81	=81
4F\	a-	2A\	a-	2f\	a-	2dd\	a-
4D\	.	.	.	.	.	.	.
4G\	.	2G/	.	2d\	.	2b\	.
4GG/	.	.	.	.	.	.	.
=82	=82	=82	=82	=82	=82	=82	=82
2C/	-men.	2G/	-men.	2e\	-men.	2cc\	-men.
2r	.	2r	.	2r	.	2r	.
==	==	==	==	==	==	==	==
*-	*-	*-	*-	*-	*-	*-	*-
!!!system-decoration: [(s1,s2,s3,s4)]
!!!ENC: Filip Voros
!!!END: 2023-11-03
!!!EED: Marta Chmielewska
!!!EEV: 2023-11-26
